X:70
T:Payne's 5th Sett Of Quadrilles,5. Le4.070
B:L.Leadley MS#4 c1850
Z:Village Music Project, 2016 Steve Mansfield
M:2/4
L:1/8
Q:2/4=60
K:Dm
c | ff (e/f/a/f/) | cc a2 | ff/e/ f/g/a/b/ | g/^f/g/a/ gc |
ff (e/f/a/f/) | cca>g | ff (e/f/g/a/) | faf H :|
|: e/f/ | gg/^f/ gc' | eg ce | df =Bd | c/d/c/=B/ c/d/e/f/ |
gg/^f/ g[cc'] | eg ce | df =Bd | cec !segno! :|
A | dd d/e/f/g/ | aa ab/^g/ | aa/f/ dd/f/ | ea AA |
dd/c/ d/e/f/g/ | aa ab/^g/ | aa/g/ gg/e/ | dfd !segno! |]

